resources/logotypes/mobileidlogo.svg

<svg width="130" height="25" xmlns="http://www.w3.org/2000/svg">
 <g>
  <title>Mobile ID Logo</title>
  <g stroke-opacity="0.7" stroke-width="1.3" stroke="#2343fc" fill="#c8d5f7" text-anchor="end" font-family="Sans-serif" font-size="30px" font-weight="normal">
   <path d="M 1.06543,1.62988 5.9846076,1.6209503 11.120334,15.995305 16.071956,1.6209503 21.0752,1.62988 V 23.5 H 18.18945 V 4.2959 L 12.899961,19.582918 9.4520521,19.643894 3.93652,4.2959 V 23.5 H 1.06543 Z" />
   <path d="m33.2041,8.9834q-2.16797,0 -3.42773,1.69922q-1.25977,1.68457 -1.25977,4.6289q0,2.94434 1.24512,4.64356q1.25976,1.68457 3.44238,1.68457q2.15332,0 3.41309,-1.69922q1.25976,-1.69922 1.25976,-4.62891q0,-2.91504 -1.25976,-4.61425q-1.25977,-1.71387 -3.41309,-1.71387zm0,-2.28516q3.51563,0 5.52246,2.28516q2.00684,2.28516 2.00684,6.32812q0,4.02832 -2.00684,6.32813q-2.00683,2.28515 -5.52246,2.28515q-3.53027,0 -5.53711,-2.28515q-1.99219,-2.29981 -1.99219,-6.32813q0,-4.04296 1.99219,-6.32812q2.00684,-2.28516 5.53711,-2.28516z"/>
   <path d="m 56.96387,15.31152 c 0,-1.98242 -0.410157,-3.535153 -1.23047,-4.6582 C 54.922853,9.5205067 53.80469,8.9541 52.37891,8.9541 c -1.425787,0 -2.548833,0.5664067 -3.36914,1.69922 -0.810547,1.123047 -1.21582,2.67578 -1.21582,4.6582 0,1.982427 0.405273,3.540047 1.21582,4.67286 0.820307,1.123047 1.943353,1.68457 3.36914,1.68457 1.42578,0 2.543943,-0.561523 3.35449,-1.68457 0.820313,-1.132813 1.23047,-2.690433 1.23047,-4.67286 z M 47.815508,8.3767245 c 1.641054,-1.5227311 3.029697,-1.7298589 4.769861,-1.7431589 1.992187,0 4.061118,0.8556911 5.301351,2.4377244 1.25,1.582033 1.875,3.66211 1.875,6.24023 0,2.578127 -0.646558,4.809114 -1.896558,6.391147 -1.240233,1.582027 -2.856443,2.37304 -4.84863,2.37304 -2.040616,0.07633 -4.208568,-0.667294 -5.265698,-2.088089 L 47.79395,23.5 H 45.08398 V 0.70703 h 2.70997 z"/>
   <path d="m64.22949,7.09375l2.69531,0l0,16.40625l-2.69531,0l0,-16.40625zm0,-6.38672l2.69531,0l0,3.41309l-2.69531,0l0,-3.41309z"/>
   <path d="m72.54981,0.70703l2.69531,0l0,22.79297l-2.69531,0l0,-22.79297z"/>
   <path d="m94.90332,14.62305l0,1.31836l-12.39258,0q0.17578,2.7832 1.66992,4.24804q1.50879,1.4502 4.18946,1.4502q1.55273,0 3.00293,-0.38086q1.46484,-0.38086 2.90039,-1.14258l0,2.54883q-1.4502,0.61523 -2.97363,0.9375q-1.52344,0.32226 -3.09083,0.32226q-3.92578,0 -6.22558,-2.28515q-2.28516,-2.28516 -2.28516,-6.18164q0,-4.02832 2.16797,-6.38672q2.18262,-2.37305 5.87402,-2.37305q3.31055,0 5.2295,2.13867q1.93359,2.12403 1.93359,5.78614zm-2.69531,-0.79102q-0.0293,-2.21191 -1.24512,-3.53027q-1.20117,-1.31836 -3.19336,-1.31836q-2.25586,0 -3.61816,1.27441q-1.34766,1.27442 -1.55274,3.58887l9.60938,-0.01465z"/>
  </g>
  <g stroke-opacity="0.7" stroke-width="1.3" stroke="#fc0526" fill="#f7c8d5" text-anchor="start" font-family="Sans-serif" font-size="30px" font-weight="normal">
   <path d="m101.44434,1.62988l2.95898,0l0,21.87012l-2.95898,0l0,-21.87012z"/>
   <path d="M 113.25098,4.0615234 V 21.068359 h 3.57422 q 4.52636,0 6.62109,-2.050781 2.10937,-2.050781 2.10937,-6.474609 0,-4.3945315 -2.10937,-6.4306643 -2.09473,-2.0507813 -6.62109,-2.0507813 z m -2.95899,-2.4316406 h 6.0791 q 6.35743,0 9.33106,2.6513672 2.97363,2.6367187 2.97363,8.261719 0,5.654297 -2.98828,8.305664 Q 122.69922,23.5 116.37109,23.5 h -6.0791 z" />
  </g>
 </g>
</svg>

<svg width="130" height="25" xmlns="http://www.w3.org/2000/svg">
 <g>
  <title>Mobile ID Logo</title>
  <g stroke-opacity="0.7" stroke-width="1.3" stroke="#2343fc" fill="#c8d5f7" text-anchor="end" font-family="Sans-serif" font-size="30px" font-weight="normal">
   <path d="m1.06543,1.62988l4.40918,0l5.58105,14.88282l5.61036,-14.88282l4.40918,0l0,21.87012l-2.88575,0l0,-19.2041l-5.63965,15l-2.97363,0l-5.63965,-15l0,19.2041l-2.87109,0l0,-21.87012z" stroke-opacity="0.7" stroke-width="1.3" stroke="#2343fc" fill="#c8d5f7"/>
   <path d="m33.2041,8.9834q-2.16797,0 -3.42773,1.69922q-1.25977,1.68457 -1.25977,4.6289q0,2.94434 1.24512,4.64356q1.25976,1.68457 3.44238,1.68457q2.15332,0 3.41309,-1.69922q1.25976,-1.69922 1.25976,-4.62891q0,-2.91504 -1.25976,-4.61425q-1.25977,-1.71387 -3.41309,-1.71387zm0,-2.28516q3.51563,0 5.52246,2.28516q2.00684,2.28516 2.00684,6.32812q0,4.02832 -2.00684,6.32813q-2.00683,2.28515 -5.52246,2.28515q-3.53027,0 -5.53711,-2.28515q-1.99219,-2.29981 -1.99219,-6.32813q0,-4.04296 1.99219,-6.32812q2.00684,-2.28516 5.53711,-2.28516z" stroke-opacity="0.7" stroke-width="1.3" stroke="#2343fc" fill="#c8d5f7"/>
   <path d="m56.96387,15.31152q0,-2.97363 -1.23047,-4.6582q-1.21582,-1.69922 -3.35449,-1.69922q-2.13868,0 -3.36914,1.69922q-1.21582,1.68457 -1.21582,4.6582q0,2.97364 1.21582,4.67286q1.23046,1.68457 3.36914,1.68457q2.13867,0 3.35449,-1.68457q1.23047,-1.69922 1.23047,-4.67286zm-9.16992,-5.72754q0.8496,-1.46484 2.13867,-2.16796q1.30371,-0.71778 3.10547,-0.71778q2.98828,0 4.84863,2.37305q1.875,2.37305 1.875,6.24023q0,3.86719 -1.875,6.24024q-1.86035,2.37304 -4.84863,2.37304q-1.80176,0 -3.10547,-0.70312q-1.28907,-0.71777 -2.13867,-2.18262l0,2.46094l-2.70997,0l0,-22.79297l2.70997,0l0,8.87695z" stroke-opacity="0.7" stroke-width="1.3" stroke="#2343fc" fill="#c8d5f7"/>
   <path d="m64.22949,7.09375l2.69531,0l0,16.40625l-2.69531,0l0,-16.40625zm0,-6.38672l2.69531,0l0,3.41309l-2.69531,0l0,-3.41309z" stroke-opacity="0.7" stroke-width="1.3" stroke="#2343fc" fill="#c8d5f7"/>
   <path d="m72.54981,0.70703l2.69531,0l0,22.79297l-2.69531,0l0,-22.79297z" stroke-opacity="0.7" stroke-width="1.3" stroke="#2343fc" fill="#c8d5f7"/>
   <path d="m94.90332,14.62305l0,1.31836l-12.39258,0q0.17578,2.7832 1.66992,4.24804q1.50879,1.4502 4.18946,1.4502q1.55273,0 3.00293,-0.38086q1.46484,-0.38086 2.90039,-1.14258l0,2.54883q-1.4502,0.61523 -2.97363,0.9375q-1.52344,0.32226 -3.09083,0.32226q-3.92578,0 -6.22558,-2.28515q-2.28516,-2.28516 -2.28516,-6.18164q0,-4.02832 2.16797,-6.38672q2.18262,-2.37305 5.87402,-2.37305q3.31055,0 5.2295,2.13867q1.93359,2.12403 1.93359,5.78614zm-2.69531,-0.79102q-0.0293,-2.21191 -1.24512,-3.53027q-1.20117,-1.31836 -3.19336,-1.31836q-2.25586,0 -3.61816,1.27441q-1.34766,1.27442 -1.55274,3.58887l9.60938,-0.01465z" stroke-opacity="0.7" stroke-width="1.3" stroke="#2343fc" fill="#c8d5f7"/>
  </g>
  <g stroke-opacity="0.7" stroke-width="1.3" stroke="#fc0526" fill="#f7c8d5" text-anchor="start" font-family="Sans-serif" font-size="30px" font-weight="normal">
   <path d="m101.44434,1.62988l2.95898,0l0,21.87012l-2.95898,0l0,-21.87012z" stroke-opacity="0.7" stroke-width="1.3" stroke="#fc0526" fill="#f7c8d5"/>
   <path d="M 113.25098,4.0615234 V 21.068359 h 3.57422 q 4.52636,0 6.62109,-2.050781 2.10937,-2.050781 2.10937,-6.474609 0,-4.3945315 -2.10937,-6.4306643 -2.09473,-2.0507813 -6.62109,-2.0507813 z m -2.95899,-2.4316406 h 6.0791 q 6.35743,0 9.33106,2.6513672 2.97363,2.6367187 2.97363,8.261719 0,5.654297 -2.98828,8.305664 Q 122.69922,23.5 116.37109,23.5 h -6.0791 z" />
  </g>
 </g>
</svg>
